X:1
T:Title
%%score 1 2 3 4
L:1/8
Q:1/4=112
M:none
K:F
V:1 treble 
V:2 treble 
V:3 treble-8 
V:4 bass 
V:1
!mf!{A} A2 B2 | c6 A2 G2 A2 | F4!>(! F2 E2 | D4 C4!>)!!p!!mf! A2 B2 | c4 A2 | G2 A2 | %6
w: King of|glo- ry, King of|peace, I will|love thee; and that|love may|ne- ver|
 F4!<(! F2 E2 | D4 C4!<)!!f! D2 E2 | F4 D2 | F2 G2 | A4!<(! A2 c2 | (c2 =B2) A4!<)!!ff!!mf! G2 A2 | %12
w: cease, I will|move thee. Thou hast|grant- ed|my re-|quest, thou hast|heard * me; thou didst|
 _B4 A2 |!>(! G2 F2 | (D2 C2)!>)!!mp! D2 F2 | G4 F4 z4 | z4 z6"^Melody in Tenor." || %17
w: note my|work- ing|breast, * thou hast|spared me.||
!mp! (A2 c2) c2 | c2 c2 | (c2 B2) (A2 G2) | (G2 F2)!>(! A2 c2 | (c2 A2) G4!>)!!pp!!mp! G2 c2 | %22
w: Where- * fore|with my|ut- * most *|art * I will|sing * thee, and the|
 (c2 A2) A2 | d4 d2 | (d2 ^c2)!<(! d2 e2 | (f2 d2) (c4 B2)!<)! |!mf! A2 G2 | (F2 A2) c2 | f4 e2 | %29
w: cream * of|all my|heart * I will|bring * thee. *|Though my|sins * a-|gainst me|
 c4!p! A2 F2 | B4 G4 A2 B2 | c4 F2 | F2 F2 | d4!mp! c2 A2 | (B2 A2) A4 z4 | z6 z4 | %36
w: cried, thou didst|clear me; and a-|lone, when|they re-|plied, thou didst|hear * me.||
 z4 z6"^Melody in Soprano." ||!f! A4 B4 | c4 A2 | G4 A4 | F4!>(! F2 E2 | D4 C4!>)!!mp!!f! A2 B2 | %42
w: |Seven whole|days, not|one in|seven, I will|praise thee; in my|
 c4 A2 | G2 A2 | F4!<(! F2 E2 | D4 C6!<)! |!ff!!mp! D4 E2 | F2 D2 | F4 G4 | A4 A2 c2 | %50
w: heart, though|not in|heaven, I can|raise thee.|Small it|is, in|this poor|sort to en-|
 (c2 =B2) A4!f! G2 A2 | _B4 A2 | G2 F2 | (D2 C2) D2 F2 | G4 F4 z4 | z6 z4 | z4 z4!ff! c2 c2 | %57
w: roll * thee: e'en e-|ter- ni-|ty's too|short * to ex-|tol thee.||Al- le-|
"^riten.""^poco rit." (B4 A4 G4) |[Q:1/4=96] !fermata!A8"^senza dim." |] %59
w: lu- * *|ia.|
V:2
!mf!{F} F2 E2 | (G2 A4) F2 F2 E2 | D4!>(! C2 C2 | (C2 B,2) (A,2 G,2)!>)!!p!!mf! F2 E2 | %4
w: King of|glo- * ry, King of|peace, I will|love * thee; * and that|
 (G2 A2) F2 | F2 E2 | D4!<(! C2 C2 | G,4 (A,2 G,2)!<)!!f! G,2 C2 | C4 C2 | D2 D2 | %10
w: love * may|ne- ver|cease, I will|move thee. * Thou hast|grant- ed|my re-|
 (D2 ^C2)!<(! D2 F2 | (E2 D2) (D2 ^C2)!<)!!ff!!mf! =B,2 =C2 | (C2 F2) F2 |!>(! D2 B,2 | %14
w: quest, * thou hast|heard * me; * thou didst|note * my|work- ing|
 B,4!>)!!mp! B,2 D2 | (D2 C2) C4!mf! C2 C2 | C4 C6{C} ||!mp! (C2 F2) E2 | G2 F2 | E6 D2 | %20
w: breast, thou hast|spared * me. Al- le-|lu- ia.|Where- * fore|with my|ut- most|
 D4!>(! F2 A2 | F6 E2!>)!!pp!!mp! F2 G2 | D4 E2 | (F2 E2) D2 | E4!<(! F2 F2 | F6 E4!<)! | %26
w: art I will|sing thee, and the|cream of|all * my|heart I will|bring thee.|
!mf! F2 F2 | (E2 D2) D2 | (A2 G2) F2 | (F2 E2)!p! D2 D2 | D6 E2 F2 G2 | (G2 A2) A2 | D2 D2 | %33
w: Though my|sins * a-|gainst * me|cried, * thou didst|clear me; and a-|lone, * when|they re-|
 D4!mp! D2 D2 | D6 C2!mf! C2 C2 | C4 C2!<(! D2 F2 | (F2 A2)!<)! (A2 G4){G} ||!f! (G2 F2) (F2 E2) | %38
w: plied, thou didst|hear me. Al- le-|lu- ia, al- le-|lu- * ia. *|Seven * whole *|
 (G2 F2) F2 | (F2 E4) D2 | D4!>(! C2 C2 | (C2 B,2) (A,2 G,2)!>)!!mp!!f! F2 E2 | (G2 A2) F2 | %43
w: days, * not|one * in|seven, I will|praise * thee; * in my|heart, * though|
 F2 E2 | D4!<(! C2 C2 | G,4 (A,4 G,2)!<)! |!ff!!mp! G,4 C2 | C2 C2 | D4 D4 | (D2 ^C2) D2 F2 | %50
w: not in|heaven, I can|raise thee. *|Small it|is, in|this poor|sort * to en-|
 (E2 D2) (D2 ^C2)!f! =B,2 =C2 | (C2 F2) F2 | D2 B,2 | B,4 B,2 D2 | (D2 C2) C4!mf! C2!<(! C2 | %55
w: roll * thee: * e'en e-|ter- * ni-|ty's too|short to ex-|tol * thee. Al- le-|
 C4!<)! C2!f! D2 F2 |!<(! (F2 A2) (A2 G2)!<)!!ff! A2 F2 | (D2 F4 D2 E4) | (D2 !fermata!C6) |] %59
w: lu- ia, al- le-|lu- * ia, * al- le-|lu- * * *|ia. *|
V:3
!mf!{c} c2 c2 | (c4 f2) c2 c2 c2 | (c2 B2)!>(! A2 F2 | F6 E2!>)!!p!!mf! c2 c2 | c4 c2 | c2 c2 | %6
w: King of|glo- * ry, King of|peace, * I will|love thee; and that|love may|ne- ver|
 (c2 B2)!<(! A2 F2 | F6 E2!<)!!f! F2 G2 | (A2 G2) F2 | B2 F2 | E4!<(! F2 F2 | %11
w: cease, * I will|move thee. Thou hast|grant- * ed|my re-|quest, thou hast|
 (G3 ^F) E4!<)!!ff!!mf! E2 E2 | (=F2 A2) c2 |!>(! c2 G2 | (F2 E2)!>)!!mp! F2 B2 | %15
w: heard * me; thou didst|note * my|work- ing|breast, * thou hast|
 (G2 B2) (B2 A2)!mf! A2 F2 | G4 (F2 E4){A} ||!mf! A4 B2 | c2 A2 | G4 A4 | F4!>(! F2 E2 | %21
w: spared * me. * Al- le-|lu- ia. *|Where- fore|with my|ut- most|art I will|
 D4 C4!>)!!p!!mf! D2 E2 | F4 G2 | A4 G2 | G4!<(! A2 c2 | d4 c6!<)! |!f! c2 B2 | A4 A2 | B4 A2 | %29
w: sing thee, and the|cream of|all my|heart I will|bring thee.|Though my|sins a-|gainst me|
 d4!mp! c2 A2 | (G2 F2) E4 D2 E2 | (F2 A2) B2 | c2 A2 | (G2 F2)!mf! D2 F2 | G4 F4!mf! A2 F2 | %35
w: cried, thou didst|clear * me; and a-|lone, * when|they re-|plied, * thou didst|hear me. Al- le-|
 G4 A2!<(! B2 c2 | d4!<)! c6{C} ||!f! A4 c4 | c4 c2 | d4 f4 | B2 A2!>(! c2 c2 | %41
w: lu- ia, al- le-|lu- ia.|Seven whole|days, not|one in|se- ven, I will|
 F6 E2!>)!!mp!!f! c2 c2 | c4 c2 | c2 c2 | c2 B2!<(! A2 F2 | F6 E4!<)! |!ff!!mp! F2 G4 | A2 F2 | %48
w: praise thee; in my|heart, though|not in|hea- ven, I can|raise thee.|Small it|is, in|
 (B2 A2) (G2 F2) | E4 F2 F2 | (G3 ^F) E4!f! E2 E2 | (=F2 A2) c2 | c2 G2 | (F2 E2) F2 B2 | %54
w: this * poor *|sort to en-|roll * thee: e'en e-|ter- * ni-|ty's too|short * to ex-|
 (G2 B2) (B2 A2)!mf! A2!<(! F2 | G4!<)! A2!f! B2 c2 |!<(! d4 c4!<)!!ff! e2 c2 | (G4 A2 B2 c2 G2) | %58
w: tol * thee. * Al- le-|lu- ia, al- le-|lu- ia, al- le-|lu- * * * *|
 (G4 !fermata!F4) |] %59
w: ia. *|
V:4
!mf!{A,} A,2 G,2 | F,4 F,,4 G,,2 C,2 | D,4!>(! A,,2 A,,2 | B,,4 C,4!>)!!p!!mf! C,2 E,2 | F,4 F,,2 | %5
w: King of|glo- ry, King of|peace, I will|love thee; and that|love may|
 G,,2 C,2 | D,4!<(! A,,2 A,,2 | (=B,,2 G,,2) C,4!<)!!f! _B,,2 B,,2 | A,,4 D,2 | D,2 B,,2 | %10
w: ne- ver|cease, I will|move * thee. Thou hast|grant- ed|my re-|
 A,,4!<(! D,2 A,,2 | G,,4 A,,4!<)!!ff!!mf! D,2 C,2 | G,,4 A,,2 |!>(! B,,2 B,,2 | %14
w: quest, thou hast|heard me; thou didst|note my|work- ing|
 C,4!>)!!mp! G,,2 G,,2 | C,4 F,4!mf! D,2 C,2 | (B,,2 G,,2) C,6{A,} ||!mp! A,4 G,2 | F,2 F,,2 | %19
w: breast, thou hast|spared me. Al- le-|lu- * ia.|Where- fore|with my|
 G,,4 C,4 | D,4!>(! A,,2 A,,2 | B,,4 C,4!>)!!pp!!mp! C,2 C,2 | D,4 D,2 | D,4 G,,2 | %24
w: ut- most|art I will|sing thee, and the|cream of|all my|
 A,,4!<(! A,,2 D,2 | G,,4 C,6!<)! |!mf! D,2 D,2 | D,4 D,2 | D,4 D,2 | G,,4!p! G,,2 A,,2 | %30
w: heart I will|bring thee.|Though my|sins a-|gainst me|cried, thou didst|
 B,,4 C,4 C,2 C,2 | F,4 F,,2 | G,,2 A,,2 | B,,4!mp! G,,2 B,,2 | C,4 F,4!mf! D,2 C,2 | %35
w: clear me; and a-|lone, when|they re-|plied, thou didst|hear me. Al- le-|
 (B,,2 G,,2) C,2!<(! C,2 C,2 | (B,,2 G,,2)!<)! C,6{E,,} ||!f! C,4 E,4 | F,4 F,,2 | %39
w: lu- * ia, al- le-|lu- * ia.|Seven whole|days, not|
 G,,4 (C,2 A,,2) | D,4!>(! A,,2 A,,2 | B,,4 C,4!>)!!mp!!f! C,2 E,2 | F,4 F,,2 | G,,2 C,2 | %44
w: one in *|seven, I will|praise thee; in my|heart, though|not in|
 D,4!<(! A,,2 A,,2 | (=B,,2 G,,2) C,6!<)! |!ff!!mp! _B,,4 B,,2 | A,,2 D,2 | (D,2 C,2) B,,4 | %49
w: heaven, I can|raise * thee.|Small it|is, in|this * poor|
 A,,4 D,2 A,,2 | G,,4 A,,4!f! D,2 C,2 | G,,4 A,,2 | B,,2 B,,2 | C,4 G,,2 G,,2 | %54
w: sort to en-|roll thee: e'en e-|ter- ni-|ty's too|short to ex-|
 C,4 F,4!mf! D,2!<(! C,2 | (B,,2 G,,2)!<)! C,2!f! C,2 C,2 |!<(! (B,,2 G,,2) C,4!<)!!ff! C,2 C,2 | %57
w: tol thee. Al- le-|lu- * ia, al- le-|lu- * ia, al- le-|
 C,12 | !fermata![F,,C,]8 |] %59
w: lu-|ia.|

